frontend/src/assets/images/Rules and help icon.svg

<svg width="40" height="40" viewBox="0 0 40 40" fill="none" xmlns="http://www.w3.org/2000/svg">
<rect width="40" height="40" rx="20" fill="#EBEFFC"/>
<path d="M20 15C20 13.9391 19.5786 12.9217 18.8284 12.1716C18.0783 11.4214 17.0609 11 16 11H10V26H17C17.7956 26 18.5587 26.3161 19.1213 26.8787C19.6839 27.4413 20 28.2044 20 29M20 15V29M20 15C20 13.9391 20.4214 12.9217 21.1716 12.1716C21.9217 11.4214 22.9391 11 24 11H30V26H23C22.2044 26 21.4413 26.3161 20.8787 26.8787C20.3161 27.4413 20 28.2044 20 29" stroke="#153B61" stroke-width="2" stroke-linecap="round" stroke-linejoin="round"/>
</svg>

<svg xmlns="http://www.w3.org/2000/svg" width="40" height="40" fill="none"><rect width="40" height="40" fill="#EBEFFC" rx="20"/><path stroke="#153B61" stroke-linecap="round" stroke-linejoin="round" stroke-width="2" d="M20 15a4 4 0 0 0-4-4h-6v15h7a3 3 0 0 1 3 3m0-14v14m0-14a4 4 0 0 1 4-4h6v15h-7a3 3 0 0 0-3 3"/></svg>
